assets/images/Logo.svg

<svg width="150" height="53" viewBox="0 0 150 53" fill="none" xmlns="http://www.w3.org/2000/svg">
<path d="M115.295 28.4052C115.985 29.636 116.931 30.7048 118.069 31.5396C119.792 32.7857 121.728 33.4432 123.86 33.4472C129.139 33.4574 134.418 33.4472 139.695 33.4533C140.387 33.455 141.078 33.3871 141.757 33.2507C144.167 32.7624 146.133 31.5508 147.633 29.6037C149.152 27.6363 149.836 25.3681 149.974 22.9175C150.014 22.0919 149.978 21.2644 149.864 20.4456C149.68 18.9729 149.225 17.5468 148.523 16.2394C147.828 14.9313 146.839 13.8025 145.634 12.9419C143.979 11.7515 141.993 11.1102 139.955 11.1082C137.261 11.0859 134.564 11.1021 131.87 11.1021C129.332 11.1021 126.794 11.1021 124.256 11.1021C123.787 11.1021 123.318 11.1305 122.852 11.167C121.636 11.271 120.451 11.6077 119.362 12.1588C117.479 13.0958 116.076 14.5303 115.099 16.3792C114.203 18.0791 113.824 19.9137 113.732 21.8163C113.701 22.6081 113.748 23.4011 113.872 24.1838C114.072 25.6689 114.555 27.1019 115.295 28.4052ZM123.424 21.6998C123.477 20.4557 123.491 19.2046 123.748 17.9768C123.881 17.3294 124.052 16.6942 124.367 16.1087C124.918 15.0733 125.785 14.4564 126.939 14.2801C127.501 14.1954 128.07 14.152 128.639 14.1504C130.795 14.1363 132.954 14.1403 135.111 14.1504C135.681 14.1478 136.25 14.2159 136.803 14.353C137.305 14.4683 137.777 14.6897 138.187 15.0024C138.757 15.4532 139.12 16.0449 139.362 16.7185C139.56 17.3107 139.696 17.9218 139.767 18.5421C139.978 20.0839 139.995 21.6339 139.949 23.1819C139.909 24.5313 139.775 25.8736 139.342 27.1663C139.067 27.9767 138.68 28.7243 138.033 29.317C137.464 29.8455 136.742 30.1799 135.971 30.2723C135.539 30.3227 135.105 30.3477 134.67 30.3473C133.657 30.3574 132.636 30.3473 131.617 30.3473V30.3392C130.356 30.3392 129.091 30.3533 127.827 30.3392C127.177 30.3288 126.54 30.1546 125.975 29.8326C125.382 29.49 124.894 28.9919 124.563 28.3921C124.082 27.5563 123.835 26.6455 123.679 25.7054C123.537 24.8703 123.464 24.0249 123.46 23.1778C123.461 22.6794 123.401 22.1891 123.424 21.6998Z" fill="#242343"/>
<path d="M46.9906 33.449H59.1038C63.0628 33.449 67.0222 33.449 70.9819 33.449C71.8332 33.4565 72.6769 33.2892 73.4609 32.9576C74.8022 32.3822 75.7443 31.4168 76.2438 30.038C76.4952 29.32 76.6032 28.5597 76.5619 27.8001C76.5364 26.904 76.2751 26.0304 75.8041 25.2675C75.1102 24.1531 74.1072 23.3964 72.9422 22.8665C71.5097 22.2141 70.0449 21.6326 68.586 21.0258C67.2366 20.4625 65.8822 19.9114 64.5338 19.3461L58.5638 16.8611C57.9246 16.5937 57.2833 16.3313 56.6522 16.0506C56.461 15.9603 56.2869 15.8376 56.1375 15.688C55.7161 15.2827 55.8772 14.4004 56.5367 14.2312C56.7643 14.1768 56.9977 14.1506 57.2316 14.1532C62.79 14.1491 68.3486 14.1491 73.9077 14.1532H75.25C75.3178 14.1532 75.3847 14.1532 75.4526 14.1532C75.8993 14.14 76.1374 13.9212 76.1486 13.4694C76.1637 12.9112 76.1546 12.355 76.1486 11.7948C76.1435 11.7055 76.1268 11.6173 76.0989 11.5324C76.0693 11.4181 76.0044 11.316 75.9135 11.2407C75.8226 11.1654 75.7102 11.1207 75.5924 11.113C75.4809 11.1035 75.3689 11.1011 75.2571 11.1059H69.8544C63.9705 11.1059 58.087 11.1059 52.2038 11.1059C51.2546 11.1059 50.3317 11.2183 49.4564 11.5962C48.2245 12.1281 47.3047 12.9861 46.79 14.2393C46.4059 15.16 46.2683 16.1648 46.3909 17.1549C46.4585 17.7651 46.632 18.3589 46.9035 18.9095C47.5275 20.1546 48.5568 20.9751 49.7745 21.5718C50.5657 21.9598 51.3883 22.281 52.2058 22.6254C54.4724 23.5757 56.74 24.5212 59.0086 25.462C60.7915 26.2049 62.5745 26.9478 64.3575 27.6907C64.9968 27.9582 65.635 28.2266 66.2671 28.5103C66.4375 28.5925 66.5949 28.6994 66.7342 28.8274C67.029 29.0857 67.0695 29.4129 66.956 29.7746C66.8426 30.1363 66.5569 30.2973 66.2013 30.3389C66.0119 30.3544 65.8218 30.3588 65.632 30.352C59.4584 30.352 53.2844 30.352 47.1101 30.352C46.9429 30.3501 46.7757 30.363 46.6107 30.3905C46.4876 30.4083 46.3735 30.4654 46.2854 30.5532C46.1972 30.6409 46.1397 30.7548 46.1214 30.8778C46.0966 30.9975 46.0834 31.1193 46.0819 31.2415C46.0819 31.6771 46.0819 32.1127 46.0819 32.5484C46.0768 33.2656 46.2622 33.449 46.9906 33.449Z" fill="#242343"/>
<path d="M79.4125 25.9219C80.0092 27.9784 81.0648 29.7452 82.7192 31.1301C84.5062 32.6253 86.5688 33.4176 88.8988 33.4388C92.5114 33.4702 96.124 33.4469 99.7386 33.4469H110.71C110.845 33.4469 110.98 33.4469 111.115 33.4419C111.435 33.4155 111.652 33.2251 111.659 32.912C111.676 32.2535 111.671 31.595 111.659 30.9355C111.662 30.8101 111.62 30.6878 111.54 30.5908C111.461 30.4938 111.349 30.4285 111.226 30.4067C111.041 30.3652 110.853 30.3448 110.663 30.3459C105.531 30.3459 100.398 30.3439 95.2649 30.3399C94.8297 30.3445 94.3946 30.3181 93.9631 30.2609C93.4336 30.195 92.9245 30.0162 92.47 29.7366C92.0156 29.4569 91.6266 29.083 91.3292 28.64C90.8946 28.0149 90.6474 27.3118 90.4549 26.5865C90.0993 25.2391 90.0497 23.8512 89.997 22.4755C89.9778 21.9862 90.0365 21.4948 90.0375 21.0045C90.0434 20.1792 90.1176 19.3558 90.2594 18.5428C90.4032 17.7029 90.6322 16.8905 91.0496 16.1378C91.2884 15.6932 91.6181 15.3039 92.0173 14.9951C92.4165 14.6864 92.8761 14.4651 93.3665 14.3457C93.9857 14.1951 94.6217 14.125 95.2588 14.137H110.627C110.75 14.137 110.874 14.143 110.996 14.1319C111.372 14.0995 111.592 13.8746 111.598 13.5028C111.606 12.9105 111.606 12.3182 111.598 11.7259C111.598 11.3521 111.371 11.1261 110.999 11.0927C110.91 11.0846 110.819 11.0927 110.73 11.0927C103.583 11.0927 96.4357 11.0927 89.2889 11.0927C88.262 11.0869 87.2392 11.2232 86.2497 11.4979C84.7774 11.9048 83.4256 12.6622 82.3099 13.7054C81.0726 14.8649 80.1454 16.3158 79.6131 17.9258C79.031 19.6173 78.8028 21.4104 78.9425 23.1937C79.0044 24.1169 79.1619 25.0312 79.4125 25.9219Z" fill="#242343"/>
<path d="M145.425 36.4415C144.66 36.6442 143.899 36.863 143.132 37.0615L140.832 37.6542C140.065 37.8568 139.296 38.0381 138.525 38.2225L136.215 38.7766L133.896 39.2933C133.123 39.4645 132.352 39.6428 131.575 39.7998C125.38 41.0986 119.14 42.1488 112.857 42.9505C100.313 44.5428 87.6607 45.1228 75.0233 44.6848C68.714 44.4376 62.4239 43.9598 56.153 43.2513C49.8882 42.5084 43.6636 41.519 37.4792 40.2831C26.567 38.1036 15.8235 35.1515 5.32972 31.4492L6.49879 30.351C6.9182 29.8992 7.28797 29.499 7.6628 29.1019C8.36519 28.3529 9.06994 27.6049 9.77706 26.858C10.9036 25.6626 12.0311 24.4688 13.1597 23.2768C14.1494 22.2303 15.1453 21.1889 16.136 20.1424C16.5818 19.6713 17.0103 19.185 17.4611 18.7241C17.7711 18.404 18.1075 18.1092 18.5137 17.7303C18.5666 17.8224 18.6262 17.9104 18.692 17.9937C19.1121 18.4583 19.5349 18.9196 19.9604 19.3775C20.8633 20.3507 21.768 21.324 22.6743 22.2972C23.5121 23.1958 24.3449 24.0984 25.1827 24.997C26.2657 26.1579 27.3517 27.3118 28.4346 28.4708C28.7385 28.797 29.0425 29.1242 29.3464 29.4524C30.402 30.5911 31.4562 31.7301 32.5092 32.8695C32.6795 33.0621 32.8901 33.2149 33.1261 33.317C33.3621 33.4191 33.6177 33.4679 33.8748 33.4601C37.3192 33.454 40.7636 33.454 44.208 33.4601C44.2973 33.4641 44.3868 33.4601 44.4754 33.4479C44.8148 33.3902 44.9688 33.1086 44.8168 32.8026C44.7344 32.6443 44.6296 32.4986 44.5058 32.37C43.898 31.7126 43.2902 31.0632 42.6722 30.4148C41.4444 29.1161 40.2148 27.8187 38.9836 26.5227C38.2228 25.7213 37.464 24.9159 36.7032 24.1146L33.1302 20.343L30.8001 17.8863C29.5574 16.5734 28.3124 15.2608 27.065 13.9485C26.373 13.2201 25.6872 12.4836 24.9932 11.7573C24.5941 11.3389 24.1352 11.0593 23.5172 11.0978C23.038 11.1282 22.5548 11.116 22.0746 11.0978C21.7597 11.0805 21.4478 11.1674 21.1872 11.345C21.0044 11.4712 20.8347 11.6154 20.6806 11.7755C19.8591 12.6275 19.0456 13.4876 18.227 14.3436C17.1741 15.4452 16.1158 16.5474 15.0521 17.6503C14.1167 18.6262 13.182 19.6024 12.2479 20.579C11.222 21.6529 10.1941 22.7257 9.16416 23.7975L6.26781 26.8225C5.29527 27.8356 4.32206 28.852 3.34817 29.8718L2.72919 30.5131C2.58736 30.661 2.44452 30.8069 2.30269 30.9548L2.28851 30.969L2.25406 31.0055L2.05955 31.2081C1.68979 31.591 1.31901 31.9729 0.945187 32.3579C0.871091 32.4303 0.805804 32.5113 0.750679 32.599L0.0182351 33.378L0 33.3973C0.0506531 33.4155 0.101306 33.4338 0.151959 33.45C12.1526 37.5978 24.4649 40.7822 36.9717 42.9728C43.2527 44.0689 49.5674 44.9178 55.9159 45.5196C62.2597 46.091 68.6154 46.4202 74.9828 46.5073C87.7018 46.6446 100.411 45.7569 112.988 43.8531C119.265 42.9001 125.494 41.6973 131.677 40.2446C132.452 40.0713 133.219 39.8748 133.99 39.6844L136.298 39.112L138.598 38.5041C139.363 38.3015 140.13 38.0989 140.893 37.8791L143.179 37.2348C143.942 37.0149 144.699 36.7819 145.459 36.5591C146.979 36.1143 148.486 35.621 150 35.1509C148.474 35.5784 146.957 36.0353 145.425 36.4415Z" fill="#242343"/>
</svg>

<svg width="150" height="53" fill="none" xmlns="http://www.w3.org/2000/svg"><path d="M115.295 28.405a9.879 9.879 0 0 0 2.774 3.135c1.723 1.246 3.659 1.903 5.791 1.907 5.279.01 10.558 0 15.835.006.692.002 1.383-.066 2.062-.202 2.41-.489 4.376-1.7 5.876-3.647 1.519-1.968 2.203-4.236 2.341-6.686.04-.826.004-1.654-.11-2.472a12.05 12.05 0 0 0-1.341-4.207 9.57 9.57 0 0 0-2.889-3.297 9.742 9.742 0 0 0-5.679-1.834c-2.694-.022-5.391-.006-8.085-.006h-7.614c-.469 0-.938.028-1.404.065a9.528 9.528 0 0 0-3.49.992c-1.883.937-3.286 2.371-4.263 4.22-.896 1.7-1.275 3.535-1.367 5.437-.031.792.016 1.585.14 2.368.2 1.485.683 2.918 1.423 4.221Zm8.129-6.705c.053-1.244.067-2.495.324-3.723.133-.648.304-1.283.619-1.868.551-1.036 1.418-1.653 2.572-1.829a11.635 11.635 0 0 1 1.7-.13c2.156-.014 4.315-.01 6.472 0a6.905 6.905 0 0 1 1.692.203c.502.115.974.337 1.384.65.57.45.933 1.042 1.175 1.715.198.593.334 1.204.405 1.824.211 1.542.228 3.092.182 4.64-.04 1.35-.174 2.692-.607 3.984-.275.81-.662 1.558-1.309 2.151a3.672 3.672 0 0 1-2.062.955c-.432.05-.866.076-1.301.075-1.013.01-2.034 0-3.053 0v-.008c-1.261 0-2.526.014-3.79 0a3.763 3.763 0 0 1-3.264-1.947c-.481-.836-.728-1.747-.884-2.687a15.515 15.515 0 0 1-.219-2.527c.001-.499-.059-.989-.036-1.478ZM46.99 33.449h23.992a6.223 6.223 0 0 0 2.479-.491c1.341-.576 2.283-1.541 2.783-2.92.251-.718.36-1.478.318-2.238a5.097 5.097 0 0 0-.758-2.533c-.694-1.114-1.697-1.87-2.862-2.4-1.432-.653-2.897-1.234-4.356-1.841-1.35-.564-2.704-1.115-4.052-1.68l-5.97-2.485c-.64-.267-1.28-.53-1.912-.81a1.835 1.835 0 0 1-.514-.363c-.422-.405-.26-1.288.399-1.457.227-.054.46-.08.695-.078 5.558-.004 11.117-.004 16.676 0H75.453c.446-.013.684-.232.696-.684.015-.558.006-1.114 0-1.674a1.028 1.028 0 0 0-.05-.263.562.562 0 0 0-.507-.419 2.624 2.624 0 0 0-.335-.007H52.204c-.95 0-1.872.112-2.748.49-1.232.532-2.151 1.39-2.666 2.643a5.74 5.74 0 0 0-.4 2.916c.069.61.242 1.204.514 1.755.623 1.245 1.653 2.065 2.87 2.662.792.388 1.614.709 2.432 1.053a291008.83 291008.83 0 0 0 12.152 5.065c.639.268 1.277.537 1.91.82.17.082.327.19.466.317.295.259.336.586.222.948-.113.361-.4.522-.755.564-.19.015-.38.02-.569.013H47.11a2.842 2.842 0 0 0-.5.038.578.578 0 0 0-.489.488c-.024.12-.038.241-.04.363v1.307c-.004.718.181.901.91.901ZM79.412 25.922c.597 2.056 1.653 3.823 3.307 5.208 1.787 1.495 3.85 2.288 6.18 2.309 3.612.031 7.225.008 10.84.008h10.971c.135 0 .27 0 .405-.005.32-.026.537-.217.544-.53.017-.658.012-1.317 0-1.976a.522.522 0 0 0-.433-.53 2.5 2.5 0 0 0-.563-.06c-5.132 0-10.265-.002-15.398-.006a9.17 9.17 0 0 1-1.302-.08 3.728 3.728 0 0 1-2.634-1.62c-.434-.625-.682-1.328-.874-2.053-.356-1.348-.405-2.736-.458-4.111-.02-.49.04-.981.04-1.471.006-.826.08-1.65.222-2.462.144-.84.373-1.652.79-2.405a3.596 3.596 0 0 1 2.317-1.792c.62-.15 1.256-.221 1.893-.209h15.368c.123 0 .247.006.369-.005.376-.032.596-.257.602-.63.008-.591.008-1.184 0-1.776 0-.374-.227-.6-.599-.633-.089-.008-.18 0-.269 0H89.289c-1.027-.006-2.05.13-3.04.405a9.457 9.457 0 0 0-3.94 2.207 10.151 10.151 0 0 0-2.696 4.22 13.056 13.056 0 0 0-.67 5.269c.061.923.219 1.837.47 2.728Z" fill="#242343"/><path d="M145.425 36.441c-.765.203-1.526.422-2.293.62l-2.3.593c-.767.203-1.536.384-2.307.568l-2.31.555-2.319.516c-.773.172-1.544.35-2.321.507a238 238 0 0 1-18.718 3.15 235.63 235.63 0 0 1-37.834 1.735c-6.309-.247-12.6-.725-18.87-1.434a238.675 238.675 0 0 1-18.674-2.968A234.93 234.93 0 0 1 5.33 31.45l1.17-1.098c.42-.452.789-.852 1.164-1.25.702-.748 1.407-1.496 2.114-2.243 1.127-1.195 2.254-2.39 3.383-3.581.99-1.047 1.985-2.088 2.976-3.135.446-.47.874-.957 1.325-1.418.31-.32.647-.615 1.053-.994.053.092.112.18.178.264.42.464.843.926 1.268 1.384l2.714 2.92c.838.898 1.67 1.8 2.509 2.699 1.083 1.16 2.169 2.315 3.252 3.474.303.326.608.653.911.981 1.056 1.14 2.11 2.278 3.163 3.418a1.752 1.752 0 0 0 1.366.59c3.444-.006 6.889-.006 10.333 0 .09.004.179 0 .267-.012.34-.058.494-.34.342-.645a1.867 1.867 0 0 0-.311-.433 176.146 176.146 0 0 0-1.834-1.955 2216.084 2216.084 0 0 0-3.688-3.892c-.761-.802-1.52-1.607-2.28-2.408l-3.574-3.772-2.33-2.457a2568.476 2568.476 0 0 0-3.735-3.938c-.692-.728-1.378-1.464-2.072-2.19-.399-.42-.858-.699-1.476-.66-.479.03-.962.018-1.442 0a1.436 1.436 0 0 0-.888.247c-.183.126-.352.27-.506.43-.822.852-1.635 1.713-2.454 2.569a1016.644 1016.644 0 0 1-3.175 3.306l-2.804 2.929a1515.51 1515.51 0 0 1-3.084 3.218l-2.896 3.026c-.973 1.013-1.946 2.029-2.92 3.049l-.619.641-.426.442-.014.014-.035.037-.194.202-1.115 1.15c-.074.072-.14.153-.194.241l-.733.779-.018.02c.05.017.101.036.152.052 12 4.148 24.313 7.332 36.82 9.523a244.217 244.217 0 0 0 18.944 2.547c6.344.571 12.7.9 19.067.987 12.719.138 25.428-.75 38.005-2.654a237.61 237.61 0 0 0 18.689-3.608c.775-.174 1.542-.37 2.313-.56l2.308-.573 2.3-.608c.765-.203 1.532-.405 2.295-.625l2.286-.644c.763-.22 1.52-.453 2.28-.676 1.52-.445 3.027-.938 4.541-1.408-1.526.427-3.043.884-4.575 1.29Z" fill="#242343"/></svg>
